public/images/menu/statistics_1.svg

<svg width="120" height="119" viewBox="0 0 120 119" fill="none" xmlns="http://www.w3.org/2000/svg">
<path d="M113.789 80.8047C110.896 82.8103 107.57 84.1139 104.079 84.6114C100.588 85.1089 97.0285 84.7863 93.6852 83.6695C93.3824 83.5621 93.0579 83.529 92.7394 83.573C92.4209 83.617 92.1178 83.7367 91.8558 83.9221L82.8584 90.2704L85.1737 93.5152L93.3373 87.7458C97.1529 88.8548 101.169 89.1029 105.093 88.472C109.017 87.8412 112.75 86.3473 116.021 84.0992C117.199 83.307 118.316 82.4279 119.362 81.4691L116.651 78.5447C115.756 79.369 114.799 80.1245 113.789 80.8047V80.8047Z" fill="#195A00"/>
<path d="M93.6548 51.1142C90.7931 52.9336 88.5007 55.514 87.0373 58.5632C85.574 61.6124 84.9982 65.0085 85.3752 68.3666L60.0286 84.5328L34.678 68.3766C35.0632 65.0173 34.4901 61.6181 33.0245 58.5677C31.5589 55.5174 29.2598 52.9392 26.3904 51.1282C22.5815 48.516 17.9498 47.3667 13.3542 47.8934C11.1864 48.1045 9.09226 48.7893 7.22121 49.8988C5.35016 51.0083 3.74837 52.5151 2.53023 54.3117C1.31208 56.1084 0.507622 58.1504 0.174288 60.2921C-0.159046 62.4339 -0.0130305 64.6224 0.601907 66.7015C1.83378 71.1363 4.64061 74.976 8.5016 77.5081C11.2661 79.4799 14.5333 80.6365 17.9283 80.8452C21.3232 81.0538 24.7086 80.3061 27.696 78.6878L47.3723 92.588L28.6477 104.535C27.7627 105.094 26.9995 105.825 26.4034 106.683C25.8073 107.542 25.3904 108.51 25.1775 109.532C24.9646 110.554 24.9599 111.607 25.1638 112.631C25.3677 113.654 25.7759 114.627 26.3644 115.49C26.9506 116.352 27.7039 117.089 28.5802 117.657C29.4565 118.225 30.438 118.613 31.467 118.798C32.4961 118.983 33.5521 118.962 34.5728 118.736C35.5936 118.509 36.5586 118.082 37.4112 117.48L60.0286 101.521L82.646 117.492C83.4995 118.113 84.4703 118.556 85.5002 118.795C86.5301 119.035 87.5978 119.064 88.6396 118.883C89.6813 118.702 90.6755 118.313 91.5626 117.74C92.4497 117.167 93.2115 116.422 93.8024 115.55C94.3932 114.677 94.8009 113.694 95.0011 112.661C95.2012 111.628 95.1897 110.565 94.9672 109.536C94.7447 108.508 94.3158 107.534 93.7062 106.675C93.0966 105.815 92.3188 105.086 91.4194 104.533L72.6729 92.5959L92.3632 78.6898C95.3502 80.3087 98.7354 81.0571 102.13 80.8491C105.525 80.6411 108.793 79.4853 111.558 77.514C119.775 71.9953 122.458 61.5826 117.534 54.3013C112.609 47.02 101.89 45.5956 93.6548 51.1142V51.1142ZM35.0959 114.243C34.2416 114.815 33.1963 115.032 32.1833 114.848C31.1702 114.664 30.2695 114.094 29.6734 113.258C29.3849 112.835 29.1848 112.358 29.0849 111.856C28.9851 111.354 28.9875 110.837 29.0921 110.336C29.1967 109.835 29.4014 109.36 29.6939 108.94C29.9864 108.519 30.3609 108.161 30.7951 107.887L50.8872 95.0668L56.5636 99.0735L35.0959 114.243ZM90.9596 110.338C91.1162 111.093 91.0409 111.877 90.7435 112.588C90.446 113.3 89.9402 113.906 89.2918 114.328C88.6435 114.75 87.8825 114.968 87.108 114.953C86.3335 114.939 85.5813 114.693 84.9493 114.247L28.8877 74.6572C28.5458 74.416 28.1365 74.2878 27.7174 74.2906C27.2984 74.2935 26.8908 74.4273 26.5523 74.6731C24.1837 76.2112 21.3988 76.9912 18.5716 76.9084C15.7444 76.8255 13.0105 75.8837 10.737 74.2096C7.67804 72.2131 5.45033 69.1809 4.46678 65.6749C3.99615 64.1434 3.8756 62.5266 4.11396 60.9427C4.35232 59.3589 4.94355 57.8481 5.8444 56.5209C6.74525 55.1938 7.93291 54.0838 9.32049 53.2722C10.7081 52.4607 12.2605 51.9681 13.864 51.8304C17.4991 51.4245 21.1588 52.3433 24.165 54.4167C26.575 55.8885 28.4746 58.0586 29.609 60.6358C30.7435 63.213 31.0583 66.0738 30.5112 68.8341C30.4084 69.2388 30.4361 69.6653 30.5904 70.0534C30.7447 70.4415 31.0178 70.7715 31.3709 70.9966L89.2621 107.885C89.6963 108.159 90.0704 108.518 90.3621 108.939C90.6538 109.361 90.857 109.836 90.9596 110.338V110.338ZM109.314 74.2056C107.04 75.8793 104.305 76.8205 101.478 76.9026C98.6504 76.9848 95.8653 76.204 93.4968 74.6652C93.1583 74.4193 92.7508 74.2855 92.3317 74.2827C91.9127 74.2798 91.5033 74.4081 91.1615 74.6492L69.042 90.2743L63.7395 86.8922L88.6802 70.9767C89.0326 70.7518 89.3052 70.4225 89.4594 70.0352C89.6137 69.648 89.6418 69.2223 89.54 68.8182C89.0038 66.0574 89.3245 63.1996 90.4594 60.6244C91.5944 58.0493 93.4899 55.8786 95.8941 54.4008C102.292 50.1096 110.518 51.0566 114.215 56.5056C117.912 61.9547 115.71 69.9144 109.314 74.2056V74.2056Z" fill="#195A00"/>
<path d="M21.8936 3.64643L19.6802 0.332031C14.8504 3.51634 11.2283 8.21499 9.38919 13.6818C7.55005 19.1486 7.59933 25.07 9.52918 30.5058L13.2981 29.1768C11.6662 24.5766 11.6259 19.5658 13.1836 14.9403C14.7413 10.3147 17.8076 6.33962 21.8956 3.64643H21.8936Z" fill="#195A00"/>
<path d="M17.541 36.3428C16.5782 35.2561 15.7251 34.078 14.9937 32.8254L11.5327 34.8149C12.3962 36.2957 13.4041 37.6884 14.5418 38.9728L17.541 36.3428Z" fill="#195A00"/>
<path d="M81.9825 68.0384L87.6748 39.7208C92.3028 39.3202 96.5957 37.1542 99.6554 33.6761C102.715 30.198 104.304 25.6774 104.091 21.06C103.877 16.4427 101.877 12.0864 98.5093 8.90271C95.1414 5.71903 90.6667 3.95462 86.0213 3.97868C81.9783 3.96443 78.0513 5.32233 74.8886 7.82823C73.2412 5.41646 71.0259 3.44228 68.4359 2.07781C65.8458 0.713334 62.9596 0 60.0289 0C57.0982 0 54.212 0.713334 51.6219 2.07781C49.0319 3.44228 46.8166 5.41646 45.1692 7.82823C42.0065 5.32233 38.0794 3.96443 34.0365 3.97868C29.407 3.97825 24.9554 5.75318 21.6073 8.93445C18.2591 12.1157 16.272 16.4586 16.0591 21.0601C15.8462 25.6616 17.4238 30.1677 20.464 33.6417C23.5042 37.1156 27.773 39.29 32.383 39.7129L38.0753 68.0384L41.9942 67.2586L40.8745 61.6722H79.1833L78.0636 67.2427L81.9825 68.0384ZM72.3313 57.6934L74.0048 46.0393L70.046 45.4743L68.2925 57.6934H62.0283V35.8096H58.0295V57.6934H51.7653L50.0118 45.4743L46.053 46.0393L47.7265 57.6934H40.0747L35.9959 37.4012C35.9037 36.9518 35.6583 36.5479 35.3013 36.2579C34.9442 35.9679 34.4974 35.8095 34.0365 35.8096C30.3245 35.8096 26.7646 34.3424 24.1399 31.7308C21.5151 29.1191 20.0406 25.577 20.0406 21.8836C20.0406 18.1902 21.5151 14.648 24.1399 12.0364C26.7646 9.42475 30.3245 7.95754 34.0365 7.95754C35.9419 7.95268 37.8278 8.33885 39.5765 9.09191C41.3251 9.84498 42.8989 10.9488 44.1995 12.3343C44.4217 12.5681 44.6977 12.7448 45.0036 12.8492C45.3096 12.9536 45.6364 12.9826 45.9561 12.9337C46.2758 12.8848 46.5788 12.7595 46.8391 12.5684C47.0994 12.3774 47.3092 12.1264 47.4506 11.8369C48.5928 9.48329 50.3788 7.49782 52.6037 6.10842C54.8286 4.71902 57.4021 3.98202 60.0289 3.98202C62.6557 3.98202 65.2292 4.71902 67.4541 6.10842C69.679 7.49782 71.465 9.48329 72.6072 11.8369C72.7486 12.1264 72.9584 12.3774 73.2187 12.5684C73.479 12.7595 73.782 12.8848 74.1017 12.9337C74.4214 12.9826 74.7482 12.9536 75.0542 12.8492C75.3601 12.7448 75.636 12.5681 75.8583 12.3343C77.1589 10.9488 78.7327 9.84498 80.4813 9.09191C82.23 8.33885 84.1159 7.95268 86.0213 7.95754C89.7333 7.95754 93.2932 9.42475 95.9179 12.0364C98.5427 14.648 100.017 18.1902 100.017 21.8836C100.017 25.577 98.5427 29.1191 95.9179 31.7308C93.2932 34.3424 89.7333 35.8096 86.0213 35.8096C85.5604 35.8095 85.1136 35.9679 84.7565 36.2579C84.3995 36.5479 84.1541 36.9518 84.0619 37.4012L79.9831 57.6934H72.3313Z" fill="#195A00"/>
</svg>

<svg width="120" height="119" fill="none" xmlns="http://www.w3.org/2000/svg"><path d="M113.789 80.805a22.654 22.654 0 0 1-9.71 3.806 22.7 22.7 0 0 1-10.394-.942 2.008 2.008 0 0 0-1.83.253l-8.997 6.348 2.316 3.245 8.163-5.77a26.852 26.852 0 0 0 11.756.727 26.805 26.805 0 0 0 10.928-4.373 28.393 28.393 0 0 0 3.341-2.63l-2.711-2.924a24.08 24.08 0 0 1-2.862 2.26Z" fill="#195A00"/><path d="M93.655 51.114a18.12 18.12 0 0 0-6.618 7.45 18.011 18.011 0 0 0-1.662 9.803L60.03 84.533 34.678 68.377a17.93 17.93 0 0 0-1.653-9.81 18.038 18.038 0 0 0-6.635-7.439 19.19 19.19 0 0 0-13.036-3.235A14.846 14.846 0 0 0 7.221 49.9a14.765 14.765 0 0 0-4.69 4.413 14.651 14.651 0 0 0-1.928 12.39A19.013 19.013 0 0 0 8.5 77.507a18.17 18.17 0 0 0 19.194 1.18l19.676 13.9-18.724 11.947a7.778 7.778 0 0 0-3.484 8.096 7.83 7.83 0 0 0 3.416 5.026 7.902 7.902 0 0 0 5.993 1.079 7.89 7.89 0 0 0 2.838-1.256l22.618-15.959 22.617 15.971a7.885 7.885 0 0 0 8.917.248A7.805 7.805 0 0 0 95 112.661a7.783 7.783 0 0 0-1.295-5.986 7.83 7.83 0 0 0-2.287-2.142L72.673 92.596l19.69-13.906a18.168 18.168 0 0 0 19.195-1.176c8.217-5.519 10.9-15.931 5.976-23.213-4.925-7.281-15.644-8.705-23.88-3.187Zm-58.56 63.129a3.963 3.963 0 0 1-5.422-.985 3.807 3.807 0 0 1 1.122-5.371l20.092-12.82 5.677 4.007-21.468 15.169Zm55.865-3.905a3.82 3.82 0 0 1-.216 2.25 3.845 3.845 0 0 1-1.452 1.74c-.648.422-1.41.64-2.184.625a3.865 3.865 0 0 1-2.159-.706l-56.061-39.59a2.007 2.007 0 0 0-2.336.016 13.908 13.908 0 0 1-15.815-.463 15.05 15.05 0 0 1-6.27-8.535 10.691 10.691 0 0 1 1.377-9.154 10.776 10.776 0 0 1 3.476-3.249 10.838 10.838 0 0 1 4.544-1.442 15.18 15.18 0 0 1 10.301 2.587 13.807 13.807 0 0 1 5.444 6.219 13.722 13.722 0 0 1 .902 8.198 1.98 1.98 0 0 0 .86 2.163l57.891 36.888a3.817 3.817 0 0 1 1.698 2.453Zm18.354-36.132a13.91 13.91 0 0 1-15.817.46 2.005 2.005 0 0 0-2.335-.017l-22.12 15.625-5.303-3.382L88.68 70.977a1.991 1.991 0 0 0 .86-2.159 13.793 13.793 0 0 1 .92-8.194 13.878 13.878 0 0 1 5.434-6.223c6.398-4.291 14.624-3.344 18.321 2.105 3.697 5.449 1.495 13.408-4.901 17.7ZM21.894 3.646 19.68.332a25.88 25.88 0 0 0-10.29 13.35 25.74 25.74 0 0 0 .14 16.824l3.768-1.33a21.78 21.78 0 0 1-.114-14.236 21.898 21.898 0 0 1 8.712-11.294h-.002ZM17.541 36.343a22.134 22.134 0 0 1-2.547-3.518l-3.461 1.99a26.098 26.098 0 0 0 3.009 4.158l2.999-2.63Z" fill="#195A00"/><path d="m81.983 68.038 5.692-28.317c4.628-.4 8.92-2.567 11.98-6.045a17.853 17.853 0 0 0 4.436-12.616 17.869 17.869 0 0 0-5.582-12.157 18.044 18.044 0 0 0-12.488-4.924 17.827 17.827 0 0 0-11.132 3.85 17.937 17.937 0 0 0-6.453-5.751 18.04 18.04 0 0 0-16.814 0 17.937 17.937 0 0 0-6.453 5.75 17.827 17.827 0 0 0-11.133-3.85c-4.629 0-9.08 1.775-12.429 4.956A17.866 17.866 0 0 0 16.06 21.06a17.85 17.85 0 0 0 4.405 12.582 18.026 18.026 0 0 0 11.919 6.07l5.692 28.326 3.92-.78-1.12-5.586h38.308l-1.12 5.57 3.92.796ZM72.33 57.693l1.674-11.654-3.959-.565-1.754 12.22h-6.264V35.81H58.03v21.883h-6.265l-1.753-12.219-3.959.565 1.674 11.654h-7.652l-4.08-20.292a1.988 1.988 0 0 0-.694-1.143 2.006 2.006 0 0 0-1.265-.448 14.032 14.032 0 0 1-9.896-4.08 13.89 13.89 0 0 1-4.1-9.846 13.89 13.89 0 0 1 4.1-9.848 14.031 14.031 0 0 1 9.896-4.078 13.918 13.918 0 0 1 5.54 1.134 13.859 13.859 0 0 1 4.623 3.242 2 2 0 0 0 1.757.6 2.004 2.004 0 0 0 1.495-1.097 13.922 13.922 0 0 1 5.153-5.729 14.02 14.02 0 0 1 14.85 0 13.922 13.922 0 0 1 5.153 5.729 1.991 1.991 0 0 0 1.495 1.097 2.01 2.01 0 0 0 1.756-.6 13.859 13.859 0 0 1 4.623-3.242 13.918 13.918 0 0 1 5.54-1.134c3.712 0 7.272 1.467 9.897 4.078a13.89 13.89 0 0 1 4.099 9.848 13.89 13.89 0 0 1-4.1 9.847 14.032 14.032 0 0 1-9.896 4.079c-.46 0-.907.158-1.264.448-.358.29-.603.694-.695 1.143l-4.079 20.292h-7.652Z" fill="#195A00"/></svg>
